X: 7537
T: Cock And The Hen, The
R: slip jig
M: 9/8
K: Edorian
F3 FEF c2E|F3 FEF AFE|F3 FEF c2d|ecA BAF AFE|
F3 FEF c2E|F3 FEF AFE|F3 FEF c2d|ecA BAF AFE||
ecA ABc d3|ecA BAF AFE|ecA ABc d2B|cBA BAF AFE|
ecA ABc d3|ecA BAF AFE|ecA ABc d2B|cBA BAF AFE||

